src/help.svg

<svg viewBox="0 0 16 16" fill="none" xmlns="http://www.w3.org/2000/svg"><path d="M8 1C11.866 1 15 4.134 15 8C15 11.866 11.866 15 8 15C4.134 15 1 11.866 1 8C1 4.134 4.134 1 8 1ZM8 2C4.68629 2 2 4.68629 2 8C2 11.3137 4.68629 14 8 14C11.3137 14 14 11.3137 14 8C14 4.68629 11.3137 2 8 2ZM8.34758 10V10.804H7.5466V10H8.34758ZM9.01076 5.52356C9.60863 5.81258 10.0023 6.37064 10.0023 7.01515C10.0023 7.57051 9.76866 7.86641 9.21688 8.22843L8.85776 8.45622C8.81121 8.48711 8.77408 8.51344 8.74095 8.53912L8.55653 8.69661C8.38436 8.85335 8.35368 8.93525 8.34821 9.25124L8.34703 9.49997H7.54703C7.54703 8.64068 7.64541 8.41989 8.17458 7.96882C8.26798 7.8892 8.3555 7.82679 8.49469 7.73811L8.65074 7.64056C9.08621 7.37059 9.20228 7.24481 9.20228 7.01515C9.20228 6.6957 8.99785 6.40589 8.66258 6.24382C8.23941 6.03925 7.82571 6.07 7.53539 6.20052C7.14577 6.37568 6.91167 6.6819 6.82023 7.1576L6.79501 7.3225L6.00039 7.22987C6.09832 6.38986 6.50652 5.78595 7.20736 5.47087C7.69533 5.25148 8.34765 5.203 9.01076 5.52356Z" fill="#111111"/></svg>

<svg viewBox="0 0 16 16" fill="none" xmlns="http://www.w3.org/2000/svg"><path d="M8 1a7 7 0 1 1 0 14A7 7 0 0 1 8 1Zm0 1a6 6 0 1 0 0 12A6 6 0 0 0 8 2Zm.348 8v.804h-.801V10h.8Zm.663-4.476c.598.289.991.847.991 1.491 0 .556-.233.851-.785 1.213l-.36.228c-.046.031-.083.057-.116.083l-.184.158c-.173.156-.203.238-.209.554l-.001.249h-.8c0-.86.098-1.08.628-1.531.093-.08.18-.142.32-.23l.156-.098c.435-.27.551-.396.551-.626 0-.32-.204-.61-.54-.771-.423-.205-.836-.174-1.127-.043-.39.175-.623.48-.715.957l-.025.164L6 7.23c.098-.84.507-1.444 1.207-1.76.488-.219 1.14-.267 1.804.054Z" fill="#111111"/></svg>
